assets/images/icons/ico-shop-8.svg

<svg width="32" height="33" viewBox="0 0 32 33" fill="none" xmlns="http://www.w3.org/2000/svg">
<path d="M6.78205 2.82833C7.45612 2.14193 8.43063 1.63671 9.35738 1.52577C10.033 1.47647 10.0496 1.5649 10.7206 1.66659C10.7938 2.49858 10.8293 3.49547 10.6914 4.32361C10.5704 5.02079 10.3154 5.71489 9.85474 6.26185C9.23613 6.95595 8.23366 7.6785 7.3177 7.71548C7.97944 7.29178 9.35507 6.43903 9.84194 5.81581C10.0946 5.53231 9.93223 5.33283 9.52933 5.3205C9.205 5.25348 9.12748 5.48536 8.94491 5.6872C8.46189 6.19024 7.79662 6.70601 7.17108 7.01646C6.92919 7.11969 6.48859 7.17054 6.24053 7.01646C6.22897 6.85238 6.36374 6.40976 6.43076 6.25415C6.78051 5.41753 7.36676 4.69339 8.05855 4.11407C8.34435 3.87911 8.10425 3.64379 7.75297 3.53286C7.45253 3.41114 7.38447 3.6957 7.17108 3.86518C6.68421 4.32663 6.16633 4.84977 5.82814 5.42985C5.82582 4.58476 6.20196 3.44308 6.78205 2.82833Z" fill="#48FDBC"/>
<path d="M29.8717 6.0214C29.8805 5.0594 29.4398 4.04989 28.8629 3.31614C28.4201 2.80355 28.6498 2.34608 28.1035 1.94352C27.4634 2.48008 26.7335 3.15993 26.2454 3.84302C25.8379 4.42152 25.5274 5.09263 25.4664 5.80514C25.413 6.73336 25.4157 8.42454 26.0372 9.09837C25.8689 8.33085 25.4992 6.75515 25.5956 5.97019C25.6174 5.59106 25.8733 5.56483 26.1669 5.84101C26.4436 6.02295 26.3345 6.24173 26.3208 6.51355C26.3067 7.21081 26.4124 8.04592 26.6352 8.70777C26.7332 8.95181 27.0088 9.29931 27.2932 9.36577C27.4174 9.25791 27.6351 8.84964 27.6977 8.69221C28.042 7.85333 28.1395 6.92674 28.06 6.02793C28.024 5.6597 28.3602 5.66308 28.687 5.83303C28.9855 5.95941 28.8324 6.20874 28.8635 6.47947C28.8815 7.15003 28.8777 7.88615 28.7067 8.53547C29.3059 7.93954 29.8472 6.86628 29.8717 6.0214Z" fill="#48FDBC"/>
<path d="M21.5344 15.0736C20.8603 14.3872 19.8349 13.9849 18.9081 13.874C18.2325 13.8247 18.2668 13.8101 17.5958 13.9118C17.5226 14.7438 17.4872 15.7407 17.6251 16.5688C17.746 17.266 18.001 17.9601 18.4617 18.5071C19.0803 19.2012 20.7494 19.9237 21.6654 19.9607C21.0036 19.537 18.9613 18.6843 18.4745 18.061C18.2218 17.7775 18.3842 17.5781 18.7871 17.5657C19.1114 17.4987 19.1889 17.7306 19.3715 17.9324C19.8545 18.4355 20.5198 18.9512 21.1453 19.2617C21.3872 19.3649 21.8278 19.4158 22.0759 19.2617C22.0874 19.0976 21.9527 18.655 21.8856 18.4994C21.5359 17.6628 20.9496 16.9386 20.2579 16.3593C19.9721 16.1243 20.2122 15.889 20.5634 15.7781C20.8639 15.6564 20.9319 15.9409 21.1453 16.1104C21.6322 16.5719 22.1501 17.095 22.4883 17.6751C22.4906 16.83 22.1144 15.6883 21.5344 15.0736Z" fill="#48FDBC"/>
<path d="M7.93098 0.953883C9.3142 0.546437 10.7952 0.500356 12.2092 0.774413C12.4856 0.798665 12.6506 1.06625 12.674 1.32172C12.7961 2.17299 12.8527 3.04124 12.7589 3.89817C12.6659 5.09625 12.286 6.32102 11.463 7.22322C10.7629 7.95565 9.80329 8.42939 8.80085 8.5652C7.77981 8.72366 6.64397 8.53368 5.85575 7.8263C5.31492 7.36469 4.97457 6.69774 4.84603 6.00492C4.62533 4.63383 5.0538 3.17058 5.99399 2.1455C6.51381 1.57718 7.20744 1.19964 7.93098 0.953883ZM6.82829 2.81407C6.21954 3.45919 5.86788 4.34442 5.87031 5.23126C6.2252 4.62252 6.68277 4.07359 7.1937 3.58935C7.41763 3.41149 7.6739 3.13421 7.98919 3.26194C8.35783 3.37835 8.46777 3.91676 8.16785 4.16333C7.44188 4.77127 6.82667 5.53119 6.45965 6.40914C6.38931 6.57244 6.40306 6.75272 6.41518 6.92491C6.6755 7.0866 6.9827 6.95967 7.23654 6.85134C7.89298 6.52555 8.48233 6.07202 8.98921 5.54412C9.18081 5.33231 9.36108 4.99762 9.70143 5.06796C10.1242 5.08089 10.3045 5.65164 10.0394 5.94914C9.52843 6.60316 8.85905 7.11489 8.16462 7.55952C9.12583 7.52072 10.1032 7.14561 10.7524 6.41722C11.2358 5.84324 11.5034 5.11485 11.6303 4.38322C11.775 3.51416 11.7379 2.63217 11.6611 1.75907C10.9569 1.65236 10.2398 1.6564 9.53085 1.70814C8.55832 1.82456 7.53566 2.09376 6.82829 2.81407Z" fill="black"/>
<path d="M26.6375 0.88724C26.8598 0.701302 27.1807 0.483027 27.4637 0.688367C28.3764 1.31328 29.1864 2.0926 29.8421 2.98429C30.5414 3.94632 31.0377 5.12985 30.9084 6.33926C30.7572 7.59474 30.108 8.80576 29.0846 9.56326C28.5534 9.95938 27.8994 10.1857 27.2373 10.2108C26.171 10.2197 25.1686 9.63925 24.521 8.81385C23.5913 7.66993 23.1653 6.04418 23.6859 4.63025C23.8177 4.28424 23.901 3.84607 24.2526 3.65448C24.6043 3.49683 24.9705 3.79757 25.0012 4.15247C24.8597 4.61004 24.6188 5.03446 24.5477 5.51385C24.4175 6.55511 24.8444 7.61172 25.5566 8.36274C25.3602 7.59474 25.2834 6.7944 25.3497 6.00376C25.3618 5.80004 25.4475 5.58904 25.6326 5.48314C25.9422 5.26243 26.4685 5.52679 26.4127 5.92454C26.3658 6.8041 26.4111 7.71035 26.7264 8.54141C26.8064 8.75968 26.9002 9.00059 27.1096 9.12428C27.3157 9.19623 27.458 8.97796 27.5397 8.82274C27.9213 7.99976 28.0239 7.06361 27.9681 6.16625C27.8849 5.89462 27.9908 5.57045 28.2632 5.45241C28.5955 5.28426 29.0005 5.56236 29.0256 5.91807C29.1104 6.73619 29.0272 7.56726 28.8299 8.36436C29.3376 7.82514 29.6966 7.13879 29.8186 6.40717C29.9666 5.60682 29.7038 4.79759 29.3061 4.10881C28.7766 3.21874 28.0393 2.46609 27.2236 1.83471C26.9487 1.93415 26.7458 2.19931 26.513 2.38121C26.2405 2.60272 26.0223 3.01906 25.6132 2.94872C25.2163 2.90103 25.0368 2.36262 25.3068 2.07724C25.7118 1.63988 26.1686 1.25346 26.6375 0.88724Z" fill="black"/>
<path d="M16.7641 1.69495C17.3801 1.58501 18.0285 1.81783 18.4545 2.26974C19.1716 3.01107 19.6462 4.00139 19.706 5.03698C19.803 6.08955 19.5233 7.17446 18.9032 8.03381C18.5677 8.51806 18.1271 8.97805 17.5346 9.12114C16.8239 9.32325 16.0341 9.00392 15.5935 8.42671C15.0705 7.73631 15.136 6.6797 15.7229 6.0467C15.8959 5.86238 16.0511 5.62875 16.0212 5.36358C16.0107 5.14935 15.8732 4.97554 15.739 4.82032C15.2564 4.30293 15.1044 3.50178 15.3631 2.84291C15.5774 2.24145 16.1513 1.81945 16.7641 1.69495ZM16.4513 3.05957C16.1796 3.38133 16.2823 3.86638 16.5644 4.1461C17.1344 4.70633 17.2411 5.65219 16.8425 6.33854C16.6898 6.59158 16.4416 6.78237 16.3357 7.0637C16.2346 7.33129 16.3057 7.64253 16.5014 7.84868C16.7237 8.12678 17.14 8.14538 17.4489 8.02573C17.9145 7.69185 18.2177 7.1785 18.444 6.66191C18.9194 5.38137 18.5984 3.82919 17.575 2.90516C17.2427 2.63272 16.693 2.69821 16.4513 3.05957Z" fill="black"/>
<path d="M1.35474 8.42931C1.80988 7.63543 2.88671 7.33066 3.70968 7.70738C4.37987 8.01944 4.8245 8.74863 4.81157 9.48592C4.79621 9.88932 5.18425 10.2078 5.56906 10.2095C5.966 10.2313 6.37425 10.321 6.69196 10.5741C7.27484 10.975 7.57396 11.7172 7.45431 12.4124C7.28939 13.1772 6.64992 13.8288 5.85686 13.9137C4.71779 13.9994 3.55447 13.6032 2.68783 12.8635C2.35719 12.5862 2.55687 11.9791 2.98533 11.9443C3.22786 11.8966 3.4041 12.0907 3.58599 12.2127C4.15836 12.6339 4.86816 12.853 5.57553 12.8724C6.08484 12.8975 6.53594 12.3607 6.37263 11.8635C6.27401 11.4399 5.80431 11.2483 5.40657 11.2548C4.70243 11.2208 4.07267 10.7171 3.84226 10.0583C3.71696 9.78908 3.77112 9.4843 3.69998 9.20378C3.63773 8.93134 3.40733 8.72115 3.14702 8.63465C2.81071 8.5247 2.43237 8.71225 2.24967 9.00167C2.09364 9.24582 2.14942 9.54817 2.16155 9.82141C2.2044 10.1197 2.29898 10.4051 2.3677 10.6969C2.39842 11.0648 1.9845 11.3663 1.64335 11.2151C1.34019 11.1246 1.30704 10.7737 1.22054 10.5191C1.04511 9.83839 0.951337 9.05018 1.35474 8.42931Z" fill="black"/>
<path d="M20.7009 8.28415C21.0857 8.1936 21.4819 8.28253 21.8594 8.36499C22.6864 8.53395 23.4358 9.05215 23.8813 9.76922C24.2911 10.3933 24.473 11.2115 24.2168 11.9301C24.0203 12.5454 23.4439 13.0126 22.8053 13.0919C21.6565 13.2697 20.5142 12.5761 19.9459 11.6003C19.6112 11.0385 19.4689 10.3788 19.4648 9.73042C19.4875 9.03922 20.0251 8.41754 20.7009 8.28415ZM20.9726 9.3068C20.7098 9.35127 20.4899 9.61643 20.5215 9.88564C20.5805 10.4507 20.743 11.0385 21.1561 11.4516C21.5368 11.8372 22.085 12.1209 22.6371 12.0466C23.013 11.9932 23.2814 11.6391 23.2838 11.2689C23.2766 10.8824 23.1092 10.5138 22.8893 10.2017C22.4568 9.60026 21.6904 9.32378 20.9726 9.3068Z" fill="black"/>
<path d="M23.3188 32.2197H18.31H8.53405V27.8925L5.56923 27.4528L2.8448 25.6476L1.68291 24.2857L0.601562 21.9219V20.1211L31.3315 20.3615V21.6037L30.5703 23.7641L29.0077 25.6476L25.8827 27.4528L23.3188 27.8925V32.2197Z" fill="white"/>
<path d="M12.5742 8.82625C12.9638 8.78017 13.3866 8.7349 13.7504 8.91679C14.2977 9.17225 14.7019 9.75594 14.6728 10.3703C14.6623 11.0583 14.4465 11.7479 14.0673 12.3219C13.5871 13.0276 12.8078 13.5256 11.9622 13.6493C11.2079 13.756 10.3728 13.4052 10.0203 12.7091C9.77054 12.2847 9.75923 11.7721 9.83198 11.2984C10.0252 10.4399 10.5935 9.67671 11.3591 9.24178C11.7415 9.04533 12.1457 8.88526 12.5742 8.82625ZM11.3615 10.5878C11.0697 10.937 10.8247 11.3704 10.8635 11.8417C10.8457 12.22 11.1724 12.5644 11.545 12.5927C12.0366 12.6493 12.5014 12.3979 12.8628 12.0891C13.3979 11.6226 13.617 10.891 13.6049 10.199C13.499 10.0462 13.3761 9.86507 13.1716 9.85456C12.5063 9.84891 11.8102 10.0785 11.3615 10.5878Z" fill="black"/>
<path d="M28.7472 11.8333C29.7577 11.628 30.8054 12.4226 30.9154 13.4396C31.0075 14.7735 30.4287 16.1268 29.44 17.0185C28.6089 17.7874 27.4747 18.215 26.3445 18.2037C25.3809 18.1908 24.5143 17.3314 24.5288 16.3613C24.4851 15.3427 25.4286 14.455 26.4318 14.4704C26.7059 14.4906 26.9573 14.3192 27.098 14.0928C27.2346 13.8819 27.174 13.6215 27.2168 13.3871C27.3599 12.6304 27.9695 11.9505 28.7472 11.8333ZM28.4335 13.1931C28.178 13.514 28.3227 13.953 28.1643 14.3095C27.9751 14.8503 27.5256 15.2942 26.9735 15.4567C26.638 15.5836 26.2386 15.4809 25.9363 15.6992C25.6687 15.8754 25.5329 16.2336 25.6266 16.5416C25.6905 16.818 25.9266 17.0347 26.1917 17.1164C26.7819 17.1948 27.3728 17.0282 27.9064 16.7857C28.9218 16.2982 29.6663 15.2869 29.8216 14.1705C29.8676 13.8398 29.9186 13.455 29.6898 13.1769C29.3931 12.784 28.7156 12.7816 28.4335 13.1931Z" fill="black"/>
<path d="M16.1424 13.0457C17.4076 12.8638 18.7156 12.8387 19.9671 13.1346C20.9986 13.3998 22.0059 13.9357 22.626 14.8274C23.0351 15.4014 23.3212 16.0659 23.4441 16.7612C23.6204 17.8097 23.4659 18.965 22.7675 19.8025C23.4021 19.8009 24.0375 19.8025 24.6729 19.8025C24.9567 19.91 25.1345 20.2334 25.0197 20.5268C24.9486 20.7459 24.715 20.885 24.4886 20.8704C16.6881 20.8736 8.88762 20.8696 1.08712 20.872C1.20596 22.1873 1.68051 23.4776 2.49136 24.5245C3.39598 25.7145 4.69108 26.603 6.13089 27.0064C6.76793 27.1632 7.42032 27.2772 8.07838 27.2699C13.3606 27.2699 18.6429 27.2699 23.9251 27.2699C25.3835 27.2691 26.8468 26.8285 28.0279 25.9651C29.6763 24.7969 30.7499 22.8834 30.9132 20.872C29.4984 20.8688 28.0837 20.8753 26.6697 20.8696C26.4102 20.8769 26.1653 20.6602 26.1297 20.4056C26.0772 20.1356 26.2817 19.9262 26.4975 19.8065C28.2041 19.7976 29.9107 19.8017 31.6173 19.8041C31.804 19.9108 31.994 20.0782 31.9924 20.3126C32.0053 22.6207 30.9592 24.9101 29.1936 26.3992C27.7676 27.6369 25.8912 28.3322 24.0035 28.3241C23.9995 29.5666 24.0084 30.81 23.9995 32.0525C24.0003 32.3808 23.6818 32.6411 23.36 32.5999C18.4262 32.5974 13.4924 32.6039 8.55778 32.5966C8.26109 32.6096 7.99916 32.3428 7.99996 32.0493C7.99269 31.3735 7.99997 30.6976 7.99673 30.0218C7.97005 29.7332 8.17701 29.4211 8.47774 29.3944C8.78656 29.3484 9.08002 29.6273 9.06547 29.9353C9.07032 30.4672 9.06385 30.9992 9.06709 31.5303C13.6889 31.5303 18.3114 31.5303 22.9332 31.5311C22.934 30.4624 22.9324 29.3944 22.934 28.3257C17.98 28.3233 13.0259 28.3265 8.07111 28.3241C6.86494 28.3265 5.65311 28.0799 4.5682 27.5464C2.82443 26.725 1.40564 25.2416 0.650573 23.4687C0.228575 22.4751 0.00464166 21.3927 0.00787536 20.3126C0.00383323 20.0765 0.19543 19.9124 0.381368 19.8041C1.16392 19.7992 1.94648 19.8025 2.72903 19.8017C2.27551 18.9722 2.21649 17.9585 2.5625 17.0789C2.87536 16.4483 3.25694 15.7272 3.97158 15.4928C4.48412 15.3044 5.08074 15.4443 5.49385 15.7887C6.08481 16.3651 6.48821 17.1428 6.58603 17.9649C6.66202 18.6004 6.48013 19.2309 6.21335 19.8017C7.03794 19.8017 7.86253 19.8017 8.68713 19.8017C8.54323 19.2051 8.5602 18.5826 8.61598 17.9762C8.77848 17.0296 9.24736 16.1347 9.94504 15.4726C10.3937 15.0764 11.0429 14.8679 11.6314 15.0312C12.1989 15.1742 12.7082 15.5825 12.9184 16.1363C13.1415 16.6432 13.0866 17.2398 12.8311 17.724C12.688 18.0757 12.2773 18.2843 12.2725 18.6958C12.2248 19.163 12.7131 19.391 12.8432 19.7944C14.6226 19.8114 16.4027 19.7968 18.1829 19.8017C18.8046 19.7928 19.4271 19.8203 20.0487 19.7855C19.347 19.3368 18.6607 18.8154 18.1829 18.1234C17.9743 17.7612 18.343 17.2947 18.7391 17.3635C19.0002 17.4007 19.1393 17.6464 19.3034 17.8235C19.7512 18.298 20.271 18.7063 20.8378 19.0296C21.1223 19.1622 21.4222 19.3376 21.7488 19.2956C21.9938 19.18 21.862 18.834 21.8151 18.6327C21.436 17.7822 20.8313 17.0377 20.1191 16.4435C19.9299 16.302 19.9598 16.0328 20.0051 15.8299C20.1037 15.6367 20.3252 15.5251 20.5394 15.5413C20.7593 15.5744 20.9323 15.728 21.0924 15.8719C21.6211 16.3626 22.0811 16.931 22.4417 17.5567C22.4215 16.4564 21.9251 15.3165 20.9792 14.707C20.153 14.167 19.1498 14.0174 18.1821 13.9778C17.6639 13.96 17.1465 14.0036 16.6331 14.0659C16.5782 14.694 16.5765 15.3254 16.5943 15.9552C16.6081 16.6108 16.7827 17.2535 17.0204 17.8606C17.1093 18.0878 17.309 18.2851 17.2766 18.5462C17.292 18.8114 17.0454 18.9755 16.8288 19.0612C16.2993 19.066 16.1489 18.4945 15.9686 18.1056C15.4326 16.6529 15.3768 15.053 15.6541 13.5388C15.6857 13.2874 15.8853 13.0715 16.1424 13.0457ZM10.7033 16.2317C9.72757 17.1088 9.39692 18.5729 9.80518 19.8057C10.3864 19.796 10.9677 19.8057 11.549 19.8001C11.1544 19.2584 11.0881 18.4969 11.3978 17.9011C11.5255 17.6593 11.7333 17.475 11.882 17.2479C12.0639 16.9568 12.0316 16.5397 11.7753 16.302C11.5174 15.9948 10.9992 15.9689 10.7033 16.2317ZM4.21734 16.5421C3.56737 17.1015 3.20762 18.0692 3.5027 18.9043C3.62315 19.2657 3.84062 19.6319 4.20118 19.7928C4.44128 19.7992 4.72827 19.8631 4.92229 19.6804C5.44049 19.2511 5.61834 18.513 5.50274 17.8687C5.3839 17.4063 5.15188 16.9665 4.81639 16.6246C4.66925 16.4596 4.40571 16.4419 4.21734 16.5421Z" fill="black"/>
<path d="M3.00103 21.9513C3.2379 21.9206 3.4772 21.94 3.71487 21.936C11.9859 21.9352 20.2569 21.9376 28.5287 21.9352C28.7591 21.9457 29.0299 21.8915 29.2207 22.0572C29.4761 22.2416 29.4737 22.6878 29.2183 22.8721C29.0994 22.9837 28.924 22.9845 28.772 22.991C20.2302 22.9893 11.6884 22.9942 3.14655 22.9885C2.8733 23.0063 2.57742 22.7872 2.59601 22.4978C2.55155 22.2407 2.75366 21.9966 3.00103 21.9513Z" fill="black"/>
</svg>

<svg xmlns="http://www.w3.org/2000/svg" width="32" height="33" fill="none"><path fill="#48FDBC" d="M6.782 2.828c.674-.686 1.649-1.191 2.575-1.302.676-.05.693.039 1.364.14.073.833.108 1.83-.03 2.658-.12.697-.376 1.39-.836 1.938-.619.694-1.621 1.417-2.537 1.453.661-.423 2.037-1.276 2.524-1.9.253-.283.09-.482-.313-.495-.324-.067-.402.165-.584.367-.483.503-1.148 1.019-1.774 1.33-.242.103-.682.154-.93 0-.012-.165.123-.607.19-.763.35-.836.936-1.56 1.628-2.14.285-.235.045-.47-.306-.581-.3-.122-.369.163-.582.332-.487.462-1.005.985-1.343 1.565-.002-.845.374-1.987.954-2.602M29.872 6.021c.009-.962-.432-1.971-1.01-2.705-.442-.512-.212-.97-.758-1.372-.64.536-1.37 1.216-1.859 1.899-.407.579-.718 1.25-.779 1.962-.053.928-.05 2.62.571 3.293-.168-.767-.538-2.343-.441-3.128.021-.379.277-.405.57-.129.278.182.168.4.155.673-.014.697.091 1.532.314 2.194.098.244.374.591.658.658.124-.108.342-.516.405-.674.344-.839.442-1.765.362-2.664-.036-.368.3-.365.627-.195.298.126.145.376.176.646.018.671.015 1.407-.156 2.056.599-.595 1.14-1.669 1.165-2.514M21.534 15.074c-.674-.687-1.7-1.09-2.626-1.2-.675-.05-.641-.064-1.312.038-.073.832-.109 1.829.03 2.657.12.697.375 1.391.836 1.938.618.694 2.287 1.417 3.203 1.454-.661-.424-2.704-1.277-3.19-1.9-.253-.284-.09-.483.312-.495.324-.067.402.165.585.366.483.504 1.148 1.02 1.773 1.33.242.103.683.154.93 0 .012-.164-.122-.607-.19-.763-.35-.836-.935-1.56-1.627-2.14-.286-.235-.046-.47.305-.58.3-.123.369.162.582.331.487.462 1.005.985 1.343 1.565.003-.845-.374-1.987-.954-2.601"/><path fill="#000" d="M7.931.954C9.314.546 10.795.5 12.209.774c.277.025.442.292.465.548.122.851.179 1.72.085 2.576-.093 1.198-.473 2.423-1.296 3.325a4.56 4.56 0 0 1-2.662 1.342c-1.021.159-2.157-.031-2.945-.739-.541-.461-.881-1.128-1.01-1.821a4.69 4.69 0 0 1 1.148-3.86c.52-.568 1.213-.945 1.937-1.191m-1.103 1.86a3.55 3.55 0 0 0-.958 2.417A7.5 7.5 0 0 1 7.194 3.59c.224-.178.48-.455.795-.327.369.116.479.655.179.901-.726.608-1.341 1.368-1.708 2.246-.07.163-.057.344-.045.516.26.162.568.035.822-.074a6.4 6.4 0 0 0 1.752-1.307c.192-.212.372-.546.712-.476.423.013.604.584.338.881-.51.654-1.18 1.166-1.874 1.61.96-.038 1.938-.413 2.587-1.142.484-.574.751-1.302.878-2.034.145-.869.108-1.75.031-2.624-.704-.107-1.421-.103-2.13-.05-.973.116-1.995.385-2.703 1.105M26.638.887c.222-.186.543-.404.826-.199a9.9 9.9 0 0 1 2.378 2.296c.7.962 1.196 2.146 1.066 3.355-.15 1.256-.8 2.467-1.823 3.224a3.3 3.3 0 0 1-1.848.648c-1.066.009-2.068-.572-2.716-1.397-.93-1.144-1.356-2.77-.835-4.184.132-.346.215-.784.567-.976.351-.157.718.144.748.498-.141.458-.382.882-.453 1.362-.13 1.041.296 2.098 1.009 2.849a7.1 7.1 0 0 1-.207-2.36c.012-.203.098-.414.283-.52.31-.22.835.044.78.442-.047.88-.002 1.785.313 2.616.08.219.174.46.384.583.206.072.348-.146.43-.301.381-.823.484-1.76.428-2.657-.083-.271.023-.596.295-.714.332-.168.737.11.763.466a7.2 7.2 0 0 1-.196 2.446 3.8 3.8 0 0 0 .989-1.957c.148-.8-.115-1.61-.513-2.298-.53-.89-1.267-1.643-2.082-2.274-.275.1-.478.364-.711.546-.273.222-.49.638-.9.568-.397-.048-.576-.586-.306-.872.405-.437.862-.824 1.33-1.19M16.764 1.695a1.9 1.9 0 0 1 1.69.575c.718.741 1.192 1.731 1.252 2.767a4.46 4.46 0 0 1-.803 2.997c-.335.484-.776.944-1.368 1.087-.711.202-1.5-.117-1.941-.694-.524-.69-.458-1.747.129-2.38.173-.185.328-.418.298-.683-.01-.215-.148-.388-.282-.544a1.93 1.93 0 0 1-.376-1.977c.214-.602.788-1.024 1.401-1.148m-.313 1.365c-.271.321-.169.806.113 1.086.57.56.677 1.506.279 2.193-.153.253-.401.443-.507.725a.77.77 0 0 0 .165.785c.223.278.639.296.948.177.465-.334.769-.848.995-1.364.475-1.28.154-2.833-.869-3.757-.332-.272-.882-.207-1.124.155M1.355 8.43c.455-.795 1.532-1.1 2.355-.723.67.312 1.114 1.042 1.102 1.779-.016.403.372.722.757.723.397.022.805.112 1.123.365.583.401.882 1.143.762 1.838-.165.765-.804 1.417-1.597 1.502a4.44 4.44 0 0 1-3.17-1.05c-.33-.278-.13-.885.298-.92.243-.047.42.147.601.269.572.42 1.282.64 1.99.66.509.025.96-.512.797-1.01-.099-.423-.569-.615-.966-.608-.705-.034-1.334-.538-1.565-1.197-.125-.269-.07-.574-.142-.854-.062-.273-.293-.483-.553-.57-.336-.11-.715.078-.897.368-.156.244-.1.546-.088.82.042.298.137.583.206.875.03.368-.383.67-.725.518-.303-.09-.336-.441-.422-.696-.176-.68-.27-1.469.134-2.09M20.7 8.284c.386-.09.782-.001 1.16.081a3.15 3.15 0 0 1 2.021 1.404c.41.624.592 1.442.336 2.161a1.73 1.73 0 0 1-1.412 1.162c-1.148.178-2.29-.516-2.86-1.492-.334-.561-.476-1.221-.48-1.87.023-.69.56-1.312 1.236-1.446m.273 1.023c-.263.044-.483.31-.451.579.059.565.221 1.153.634 1.566.38.385.929.669 1.481.595.376-.054.644-.408.647-.778-.007-.387-.175-.755-.395-1.067-.432-.602-1.199-.878-1.916-.895"/><path fill="#fff" d="M23.319 32.22H8.534v-4.328l-2.965-.44-2.724-1.804-1.162-1.362-1.081-2.364v-1.8l30.73.24v1.242l-.762 2.16-1.562 1.884-3.125 1.805-2.564.44z"/><path fill="#000" d="M12.574 8.826c.39-.046.813-.091 1.176.09.548.256.952.84.923 1.454a3.7 3.7 0 0 1-.606 1.952 3.13 3.13 0 0 1-2.105 1.327c-.754.107-1.59-.244-1.942-.94-.25-.424-.26-.937-.188-1.41a3.2 3.2 0 0 1 1.527-2.057c.383-.197.787-.357 1.215-.416m-1.213 1.762c-.291.349-.536.782-.498 1.254-.017.378.31.722.682.75.492.057.956-.194 1.318-.503.535-.466.754-1.198.742-1.89-.106-.153-.229-.334-.433-.344-.666-.006-1.362.223-1.81.733M28.747 11.833c1.01-.205 2.058.59 2.168 1.607.093 1.334-.486 2.687-1.475 3.579a4.54 4.54 0 0 1-3.096 1.185c-.963-.013-1.83-.873-1.815-1.843-.044-1.018.9-1.906 1.903-1.89.274.02.525-.152.666-.378.137-.211.076-.472.119-.706.143-.757.753-1.437 1.53-1.554m-.314 1.36c-.255.321-.11.76-.269 1.117-.189.54-.638.984-1.19 1.147-.336.127-.735.024-1.038.242a.77.77 0 0 0-.31.843c.064.276.3.493.566.574.59.079 1.18-.088 1.714-.33a3.49 3.49 0 0 0 1.916-2.616c.046-.33.097-.715-.132-.993-.297-.393-.974-.395-1.257.016"/><path fill="#000" d="M16.142 13.046c1.266-.182 2.574-.207 3.825.089 1.032.265 2.039.8 2.659 1.692.41.574.695 1.239.818 1.934.176 1.049.022 2.204-.677 3.041h1.906c.284.108.462.431.347.725a.53.53 0 0 1-.531.343c-7.8.004-15.601 0-23.402.002.119 1.315.594 2.606 1.404 3.653a6.98 6.98 0 0 0 3.64 2.481c.637.157 1.29.271 1.947.264h15.847c1.459 0 2.922-.442 4.103-1.305 1.648-1.168 2.722-3.082 2.885-5.093-1.415-.003-2.83.003-4.243-.002a.555.555 0 0 1-.54-.464c-.053-.27.152-.48.367-.6 1.707-.008 3.414-.004 5.12-.002.187.107.377.274.375.509.013 2.308-1.033 4.597-2.798 6.086a7.94 7.94 0 0 1-5.19 1.925c-.005 1.243.004 2.486-.005 3.729.001.328-.317.588-.639.547-4.934-.003-9.868.004-14.802-.003-.297.013-.559-.254-.558-.548-.007-.675 0-1.351-.003-2.027-.027-.289.18-.6.48-.628.31-.046.603.233.588.541.005.532-.001 1.064.002 1.595l13.866.001.001-3.205c-4.954-.003-9.908 0-14.863-.002-1.206.002-2.418-.244-3.503-.778A8.03 8.03 0 0 1 .651 23.47a8.05 8.05 0 0 1-.643-3.156c-.004-.236.187-.4.373-.509.783-.005 1.565-.002 2.348-.002a3.25 3.25 0 0 1-.167-2.723c.313-.63.695-1.352 1.41-1.586.512-.189 1.109-.049 1.522.296a3.7 3.7 0 0 1 1.092 2.176c.076.635-.106 1.266-.373 1.837h2.474c-.144-.597-.127-1.22-.071-1.826a4.53 4.53 0 0 1 1.329-2.503c.449-.397 1.098-.605 1.686-.442.568.143 1.077.551 1.287 1.105.224.507.169 1.104-.087 1.588-.143.352-.554.56-.558.972-.048.467.44.695.57 1.098 1.78.017 3.56.003 5.34.008.622-.01 1.244.018 1.866-.017-.702-.448-1.388-.97-1.866-1.662-.209-.362.16-.828.556-.76.261.038.4.283.564.46.448.475.968.883 1.535 1.207.284.132.584.308.91.266.246-.116.114-.462.067-.663-.379-.85-.984-1.595-1.696-2.19-.19-.141-.16-.41-.114-.613a.56.56 0 0 1 .534-.289c.22.033.393.187.553.33.53.492.99 1.06 1.35 1.686-.02-1.1-.517-2.24-1.463-2.85-.826-.54-1.83-.69-2.797-.73a10 10 0 0 0-1.549.089c-.055.628-.056 1.26-.039 1.89.014.655.189 1.297.426 1.905.09.227.289.424.257.685.015.265-.232.43-.448.515-.53.005-.68-.567-.86-.955-.536-1.453-.592-3.053-.315-4.567a.56.56 0 0 1 .488-.493m-5.439 3.186c-.975.877-1.306 2.34-.898 3.574.581-.01 1.163 0 1.744-.006a1.85 1.85 0 0 1-.151-1.899c.127-.242.335-.426.484-.653.182-.291.15-.708-.107-.946-.258-.307-.776-.333-1.072-.07m-6.486.31c-.65.56-1.01 1.527-.714 2.362.12.362.338.728.698.889.24.006.527.07.721-.113.518-.429.696-1.167.58-1.811a2.76 2.76 0 0 0-.686-1.244c-.147-.165-.41-.183-.599-.083"/><path fill="#000" d="M3.001 21.951c.237-.03.476-.011.714-.015q12.406.001 24.814 0c.23.01.5-.044.692.121.255.185.253.63-.003.815-.119.112-.294.113-.446.119-8.542-.002-17.084.003-25.625-.003-.274.018-.57-.2-.551-.49-.044-.257.158-.501.405-.547"/></svg>
